X:1
T:Tripping Up Stairs
T:Tripping Upstairs
S:www.fleadh.com
C:Air Trad
L:1/8
M:6/8
R:jig
K:D
Q:368
AG|"D"FAA "G"GBB |"D"FAd fed |"A"c~Bc ABc |"D"dfe "G"dAG |"D"FAd "G"GBd |"D"FAd fed |"A"c~Bc ABc |"D"dfe d :|
|:Bc| "Bm"dBB fBB |"Bm"f~af fed |"A"cAA eAA |"A"e~fe edc |"Bm"dBB fBB |"Bm"f~af fed |"A"e~de cde |"D"dfe d :|

